X:1
T:Mirabile Mysterium
T:Adrian Willaert  (1490 - 1562) edit BMarble
T:Mirabile Mysterium
T:Copyright © 2015 by CPDL.  This edition can be fully distributed, duplicated, performed, and recorded.
T:Copyright © 2015 by CPDL.  This edition can be fully distributed, duplicated, performed, and recorded.
T:Copyright © 2015 by CPDL.  This edition can be fully distributed, duplicated, performed, and recorded.
T:Copyright © 2015 by CPDL.  This edition can be fully distributed, duplicated, performed, and recorded.
T:Copyright © 2015 by CPDL.  This edition can be fully distributed, duplicated, performed, and recorded.
T:Copyright © 2015 by CPDL.  This edition can be fully distributed, duplicated, performed, and recorded.
T:Copyright © 2015 by CPDL.  This edition can be fully distributed, duplicated, performed, and recorded.
T:Copyright © 2015 by CPDL.  This edition can be fully distributed, duplicated, performed, and recorded.
T:Copyright © 2015 by CPDL.  This edition can be fully distributed, duplicated, performed, and recorded.
T:Copyright © 2015 by CPDL.  This edition can be fully distributed, duplicated, performed, and recorded.
C:Adrian Willaert  (1490 - 1562)
C:edit BMarble
Z:Copyright © 2015 by CPDL.  This edition can be fully distributed, duplicated, performed, and recorded.
%%score [ 1 2 3 4 ]
L:1/8
Q:1/2=96
M:4/2
K:C
V:1 treble nm="Soprano" snm="S."
V:2 treble nm="Alto" snm="A."
V:3 treble-8 transpose=-12 nm="Tenor" snm="T."
V:4 bass nm="Bass" snm="B."
V:1
"^A wondrous mystery is declared today,an innovation is made upon nature; God is made man; that which he was, he remains, and that which he was not, he takes on, suffering neither commixture nor division." z16 | %1
w: |
 z16 | z16 | G16 | G12 F4 | F16 | E16 | D16 | F12 E2 D2 | E4 F8 E4 | F8 z4 F4- | F4 G4 A8 | G16 | %13
w: ||Mi-|ra- bi-|le,|_|my-|ste- * *|* * ri-|um de-|* cla- ra-|tur|
 z4 A6 B2 c4- | c4 B2 A2 G4 c4- | c2 B2 A8 G4 | A8 z8 | z8 z4 A4- | A4 B4 c4 A4 | B4 B4 A4 c4- | %20
w: ho- * *|* di- * e, ho-|* * * di-|e,|de-|* cla- ra- tur|ho- di- e, ho-|
 c2 B2 A8 G2 F2 | E6 D2 E4 F4 | D8 C6 D2 | E4 F6 G2 A4- | A2 B2 c8 B2 A2 | G8 z8 | F8 A8 | c16 | %28
w: |* * * di-|e, ho- *||* * * di- *|e,|in- no-|van-|
 c8 B8 | z4 A8 G2 F2 | G4 A6 G2 G4- | G4 ^F4 G8- | G8 z8 | z16 | z16 | z4 E8 E4 | F8 D4 E4- | %37
w: tur _|na- * *|* tu- * *|* * rae|_|||De- us|ho- mo fa-|
 E2 C2 F8 E4 | F4 A8 F4 | G8 A8 | G8 F6 E2 | F4 A4 G8 | F8 z8 | z4 A8 F4 | G4 A4 F8 | %45
w: * * * ctus|est, De- us|ho- *|mo fa- *|* ctus est,|_|De- us|ho- mo fa-|
 E4 A6 G2 G4- | G2 F2 F8 E4 | F4 A8 G2 F2 | E8 z8 | z16 | z16 | z8 z4 G4- | G4 F4 G4 A4 | %53
w: |* * * ctus|est, _ _ _|_|||id|_ quod fu- it|
 F4 G8 F2 E2 | D4 F4 E8 | D8 z8 | z4 D8 C4 | D8 E6 DE | F4 D4 E2 F2 G2 E2 | F4 D8 ^C4 | D16- | %61
w: per- man- * *||sit,|id quod|fu- it _ _|_ per- man- * * *||sit,|
 D8 z8 | z4 D4 E4 F4 | G8 F4 F4 | G4 A6 ^G2 G2 ^FG | A16 | z16 | z8 z4 D4 | E4 F4 G8 | %69
w: _|et quod non|e- rat as-|sum- * * * * *|psit,||et|quod non e-|
 F4 F4 G4 A4- | A2 ^G2 G2 ^FG A8- | A8 z4 A4- | A4 A4 A4 A4 | B8 G4 c4- | c2 B2 A8 G2 F2 | E8 D8 | %76
w: rat as- sum- *|* * * * * psit,|_ non|_ com- mi- xti-|o- nem pas-||* sus,|
 z16 | z16 | z8 z4 c4- | c4 c4 c4 c4 | d8 B4 c4- | c2 B2 A8 =G4 | A16 | z16 | z16 | z4 A8 F4 | %86
w: ||non|_ com- mi- xti-|o- nem pas-||sus,|||ne- que|
 A4 c4 B4 A4- | A2 G2 G8 ^F4 | G8 G8 | A4 c4 c4 B4 | A12 B4- | B2 A2 G8 ^F4 | G16 |] %93
w: di- vi- si- o-||nem, ne-|que di- vi- si-|o- *||nem.|
V:2
 z8 D8- | D8 D8- | D4 C4 C8- | C8 B,8- | B,8 D8- | D4 C4 C8- | C8 =B,8- | B,8 A,8 | A,8 F,8 | C16 | %10
w: Mi-|* ra-|* bi- le,|_ mi-|* ra-|* bi- le|_ _|* my-|ste- ri-|um|
 z8 C8 | D4 E8 D4 | E4 E4 D6 C2 | A,4 C4 D4 E4- | E4 D4 E8 | E4 F8 E2 D2 | C4 F6 E2 D4- | %17
w: de-|cla- ra- tur|ho- di- e, _|_ de- cla- ra-|* tur ho-|di- e, _ _|_ ho- * *|
 D4 ^C4 D6 =C2 | A,4 E8 F4 | G4 D4 F4 F4 | E8 z8 | z16 | z16 | z16 | z16 | z8 D8 | D8 F8 | %27
w: * di- e, _|_ de- cla-|ra- tur ho- di-|e,|||||in-|no- van-|
 E8 z4 E4- | E4 D2 C2 D4 E4- | E2 D2 C2 B,2 C4 D4 | E4 D8 C4 | D8 E8 | z4 E4 D4 C4- | %33
w: tur na-|* * * * tu-|||rae _|in- no- van-|
 C4 B,4 C4 D4- | D2 C2 C8 B,4 | C16 | C8 B,4 C4- | C4 C4 D4 C4 | A,8 z8 | z4 C8 A,4 | %40
w: * tur na- tu-||rae|De- us ho-|* mo fa- ctus|est,|De- us|
 B,4 C4 D6 C2 | D2 E2 F8 E4 | F8 z4 E4- | E4 C4 D8 | E8 D8 | C6 B,2 C4 E4 | D8 C8 | z4 C4 A,4 C4- | %48
w: ho- mo fa- *|* * * ctus|est, De-|* us ho-|* mo|fa- * * ctus|est, _|ho- mo fa-|
 C4 B,2 A,2 G,2 A,2 B,2 G,2 | A,8 z8 | z16 | z4 C8 B,4 | C4 D4 B,4 C4 | %53
w: * * * * * ctus *|est,||id quod|fu- it per- man-|
 D2 C2 B,2 A,2 G,4 !courtesy!_B,4- | B,2 A,2 D8 C4 | A,4 !courtesy!_B,8 A,2 G,2 | A,8 G,6 A,2 | %57
w: sit, _ _ _ _ per-|* * * man-|sit, per- * *|man- sit, _|
 !courtesy!_B,4 A,4 =B,4 C4- | C4 B,4 C8 | F,4 _B,4 A,8 | A,4 _B,8 A,2 G,2 | F,8 z8 | z8 z4 A,4 | %63
w: _ id quod fu-|* it per-|man- * sit,|per- man- * *|sit,|et|
 =B,4 C4 D8 | C4 A,4 =B,8 | A,4 D6 C2 C4 | D4 C2 B,2 A,4 A,4 | C4 C4 D8 | C4 C4 D4 E4- | %69
w: quod non e-|rat as- sum-||psit, _ _ _ et|quod non e-|rat as- sum- *|
 E2 D2 D2 CD E8- | E16- | E8 z8 | F12 F4 | D4 D4 E8 | C4 F6 E2 D4- | D4 C4 D6 E2 | F2 D2 E8 D2 C2 | %77
w: * * * * * psit,|_||non com-|mi- xti- o-|nem pas- * *|||
 D2 C2 C8 B,4 | C4 E8 E4 | E4 E4 F8 | D4 G6 F2 E4- | E4 D2 C2 B,4 E4 | A,8 z4 F4- | %83
w: |sus, non com-|mi- xti- o-|nem pas- * *||sus, pas-|
 F2 E2 D2 C2 D4 E4- | E4 D8 ^C4 | D4 F6 E2 D4 | C4 E4 D4 F4- | F2 E2 D2 C2 D8 | D8 z4 E4- | %89
w: ||sus, ne- * que|di- vi- si- o-||nem, ne-|
 E4 C4 E4 G4 | F4 E6 D2 D4- | D4 C4 D8 | D16 |] %93
w: * que di- vi-|si- o- * *||nem.|
V:3
 G16 | _B12 A4 | A16 | z8 G8- | G8 _B8- | B4 A4 A8- | A8 G8- | G8 F8- | F8 A8- | A4 G2 F2 G4 G4 | %10
w: Mi-|ra- bi-|le,|mi-|* ra-|* bi- le|_ _|* my-|* ste-|* * * * ri-|
 F8 z4 A4- | A4 c8 B2 A2 | B4 c8 B4 | c4 F8 G4 | A6 B2 c4 A4 | c4 d4 B8 | A8 z8 | z8 z4 F4- | %18
w: um my-|* ste- * *|* * ri-|um de- cla-|ra- * * tur|ho- * di-|e,|de-|
 F4 G4 A8 | G8 z4 A4- | A2 B2 c8 B2 A2 | G4 c6 B2 A4- | A4 ^G4 A8- | A8 z4 F4 | A8 c8 | c8 B8 | %26
w: * cla- ra-|tur ho-|* * * di- *|e, ho- * *|* di- e,|_ in-|no- van-|tur _|
 z4 A8 G2 F2 | G4 A6 G2 G4- | G2 ^F2 F2 E2 G8 | z16 | z8 G8 | A8 c8 | B8 z4 A4- | A4 G2 F2 G4 A4- | %34
w: na- * *|* tu- * *|* * * * rae||in-|no- van-|tur na-|* * * * tu-|
 A2 G2 G8 F4 | G8 z4 A4- | A4 F4 G8 | A8 G8 | F6 E2 F4 A4 | G8 F8 | z4 G4 _B4 A4- | A4 F4 c4 c4 | %42
w: |rae De-|* us ho-|* mo|fa- * * ctus|est, _|De- us ho-|* mo fa- ctus|
 F6 G2 A2 F2 G4 | C4 c6 B2 B2 A2 | c6 B2 A8 | z4 A6 B2 c4 | A4 _B4 G8 | F16 | z8 z4 G4- | %49
w: est, _ _ _ _|fa- * * * *|* ctus est,|fa- * *|* * ctus|est,|id|
 G4 F4 G4 G4 | E4 G2 F2 E2 D2 G4- | G2 ^F2 F2 E2 G8 | z16 | z16 | z16 | z16 | z8 z4 G4- | %57
w: _ quod fu- it|per- man- * * * *|* * * * sit,|||||id|
 G4 F4 G4 A4 | F4 G6 F2 E4 | D4 F4 E8 | D8 z4 G4 | A4 =B4 c8 | B6 A2 B4 c4 | G8 A8 | z16 | %65
w: _ quod fu- it|per- man- * *||sit, et|quod non e-|rat _ _ as-|sum- psit,||
 z4 D4 F4 E4 | G8 F4 F4 | G4 A6 ^G2 G2 ^F2 | A4 A4 B4 c4 | A8 c4 c4 | B8 A8 | z4 c8 c4 | c4 c4 d8 | %73
w: et quod non|e- rat as-|sum- * * * *|psit, et quod non|e- rat as-|sum- psit,|non com-|mi- xti- o-|
 B8 c8 | A16 | z4 A8 F4 | A4 c4 B4 A4- | A4 G8 F4 | G16- | G8 z8 | z16 | z8 z4 c4- | c4 c4 c4 c4 | %83
w: nem pas-|sus,|ne- que|di- vi- si- o-||nem,|_||non|_ com- mi- xti-|
 d8 B4 c4- | c2 B2 A8 G4 | A8 z4 A4- | A4 G4 B4 c4- | c4 B4 A8 | G8 z4 c4- | c4 A4 c4 d4- | %90
w: o- nem pas-||sus, ne-|* que di- vi-|* si- o-|nem, ne-|* que di- vi-|
 d4 c4 d8 | G8 A8 | G16 |] %93
w: * si- o-||nem.|
V:4
 G,16 | G,12 F,4 | F,16 | E,16 | z16 | z16 | z16 | z8 D,8 | D,12 D,4 | C,16 | z4 A,6 G,2 F,2 E,2 | %11
w: Mi-|ra- bi-|le,|_||||my-|ste- ri-|um|de- * * *|
 D,4 C,4 F,8 | E,6 F,2 G,8 | F,6 E,2 D,4 C,4 | F,8 z8 | z4 D,8 E,4 | F,4 D,4 F,4 G,4 | E,8 D,8 | %18
w: * cla- ra-|tur _ _|ho- * * di-|e,|de- cla-|ra- tur ho- di-|e, _|
 z16 | z16 | A,,12 B,,4 | C,4 A,,4 C,4 D,4 | B,,8 A,,8 | z4 D,4 D,8 | F,8 F,8 | E,6 F,2 G,4 G,,4 | %26
w: ||de- cla-|ra- tur ho- di-|e, _|in- no-|van- tur|_ _ _ in-|
 D,8 D,8 | C,4 A,,4 C,6 B,,2 | A,,8 G,,4 G,4 | A,6 G,2 F,4 E,2 D,2 | C,4 F,4 E,8 | D,8 z4 C,4 | %32
w: no- van-|tur na- tu- *|* rae, na-|tu- * * * *|rae, na- tu-|rae, in-|
 E,8 F,8 | E,6 D,2 E,4 F,4 | C,4 E,4 D,8 | C,16 | z8 z4 C,4- | C,4 A,,4 B,,4 C,4 | %38
w: no- van-|tur _ _ na-|tu- * *|rae|De-|* us ho- mo|
 D,6 C,2 D,2 E,2 F,4- | F,4 E,4 F,8 | E,8 D,8- | D,8 z8 | z4 D,8 C,4 | E,4 F,4 D,8 | %44
w: fa- * * * *|* * ctus|_ est,|_|De- us|ho- * *|
 C,4 A,,4 D,6 C,2 | A,,4 F,6 E,2 C,4 | D,4 _B,,4 C,8 | F,,16 | z4 C,8 B,,4 | C,4 D,4 B,,4 C,4- | %50
w: mo fa- * *|ctus, fa- * *|* * ctus|est,|id quod|fu- it per- man-|
 C,4 B,,2 A,,2 G,,4 B,,4 | A,,8 G,,8 | z16 | z8 z4 G,4- | G,4 F,4 G,4 A,4 | F,4 G,8 F,2 E,2 | %56
w: |* sit,||id|_ quod fu- it|per- man- * *|
 D,4 F,4 E,8 | D,4 D,8 C,4 | D,4 G,,4 C,8 | D,8 A,,8 | z16 | D,8 E,4 F,4 | G,8 G,4 F,4 | E,8 D,8 | %64
w: |sit, id quod|fu- it per-|man- sit,||et quod non|e- rat as-|sum- psit,|
 z4 C,4 D,4 E,4 | F,6 G,2 A,4 A,,4 | B,,4 C,4 D,8 | C,4 A,,4 B,,8 | A,,4 A,4 G,4 C,4 | %69
w: et quod non|e- * rat et|quod non e-|rat as- sum-|psit, et quod non|
 D,8 C,4 A,,4 | E,8 A,,8- | A,,8 F,8- | F,4 F,4 D,4 D,4 | G,8 C,8 | F,8 D,8 | z8 D,8- | %76
w: e- rat as-|sum- psit,|_ non|_ com- mi- xti-|o- nem|pas- sus,|ne-|
 D,4 C,4 E,4 F,4- | F,4 E,4 D,8 | C,16- | C,8 z8 | z8 z4 C,4- | C,4 D,4 E,4 E,4 | F,6 E,2 F,8 | %83
w: * que di- vi-|* si- o-|nem,|_|non|_ com- mi- xti-|o- * *|
 D,4 G,6 F,2 E,2 D,2 | C,4 D,4 E,8 | D,8 D,6 E,2 | F,4 C,4 G,4 F,4- | F,4 G,4 D,8 | G,,8 C,8 | %89
w: nem pas- * * *||sus, ne- *|* que di- vi-|* si- o-|nem, ne-|
 A,,4 A,4 A,4 G,4 | A,6 G,2 F,4 G,4 | E,8 D,8 | G,,16 |] %93
w: que di- vi- si-|o- nem, di- vi-|si- o-|nem.|

